X:1
T:Title
%%score { ( 1 3 ) | ( 2 4 ) }
L:1/8
Q:1/4=128
M:3/4
K:D
V:1 treble nm="Grand Piano"
V:3 treble 
V:2 bass 
V:4 bass 
V:1
 [A,FA]4 [A,DF]2 | [DFA]4 [A,DF]2 | B2 z2 z2 | [A,DF]6 | A2 z2 z2 | [A,CE]4 [A,DA]2 | %6
w: A.~J.~Foxwell *||||||
 [B,D]2 G2 [B,DF]2 | [DF]2 z2 z2 | F4 [EA]2 | [Dd]4 [Ec]2 | c2 [DB]2 [FA]2 | A2 ^G4 | A4 [Fd]2 | %13
w: |||||||
 [Ec]4 [CFA]2 | [FB]2 z2 z2 | [A,CA]6 | [A,G]2- [A,DG]2 [A,EG]2 | F2 G2 A2 | B4 B2 | ^A6 | %20
w: |||||||
 B4 [Gc]2 | [Fd]4[K:bass] [F,D]2 | [A,DF]6 | [G,CE]6 | [F,D]6 |] %25
w: |||||
V:2
 D,4 D,2 | D,4 D,2 | G,2 F,2 E,2 | D,6 | z2 G2 D,2 | A,,4 F,,2 | z2 D2 ^G,,2 | z2 C4 | %8
 [D,A,D]4 [C,E,]2 | [B,,F,]4 [C,A,]2 | A,2 z2 [^D,C]2 | [E,B,E]6 | [F,A,C]4 [D,A,]2 | A,4 F,2 | %14
 z2 F2 E,2 | A,,6 | A,,2 B,,2 C,2 | D,2 E,2 [F,D]2 | [G,B,D]4 [G,B,E]2 | [F,CF]6 | %20
 [G,B,D]4 [E,G,]2 | [D,A,]2 D,2 B,,2 | A,,6 | A,,6 | D,6 |] %25
V:3
 x6 | x6 | D2- [A,DA]2 [A,CG]2 | x6 | [A,E]4 [A,DF]2 | x6 | x6 | A,2- [A,E]4 | x6 | x6 | F4 z2 | %11
 x6 | x6 | x6 | D4 [B,D^G]2 | x6 | C2 z2 z2 | [A,D]4 z2 | x6 | x6 | x6 | x4[K:bass] x2 | x6 | x6 | %24
 x6 |] %25
V:4
 x6 | x6 | x6 | x6 | C,4 z2 | x6 | G,,4 z2 | A,,6 | x6 | x6 | D,4 z2 | x6 | x6 | x6 | D,4 z2 | x6 | %16
 x6 | x6 | x6 | x6 | x6 | x6 | x6 | x6 | x6 |] %25

